X: 21242
M: 2/4
L: 1/16
K: D
V: 1 name="2"
z2 |\
dddd d2d2 | f2d2A2z2 | f2A2 (d2f2) | (ec)A2 (ec)A2 |\
K: C
de |\
d2c2 c2(cd) | c2B2B2d2 | d2ed ^cdef | g2d2 d2de |\
d2c2 c2cd | c2B2B2G2 | FGAB cdef | g2g2"^D.C."g2 |]
K: G
d^cde d2B=c | defg d2(Bc) | d^cde fefg | agdc ^A2B2 |\
d^cde d2Bc | defg d2gf | e2ag fdef | g2g2"^D.C."g2 |]


